ligands/hexadentate/edta.svg

<svg height="104" viewBox="0 0 66 104" width="66" xmlns="http://www.w3.org/2000/svg"><path d="m4106.31 7045.92a143.984 143.984 0 1 0 287.97 0 143.984 143.984 0 1 0 -287.97 0z" fill="#fd6666" transform="matrix(.05 0 0 .05 -175 -302)"/><text font-family="Helvetica" font-size="200" font-weight="bold" transform="matrix(.05 0 0 .05 15.481 46.991)">N</text><path d="m3599.28 6918.9-10.74-11.84 202.71-3.62.21 12.03z" transform="matrix(.05 0 0 .05 -175 -302)"/><path d="m3567.59 7194.17-13.24 9.78 34.19-296.89 10.74 11.84z" transform="matrix(.05 0 0 .05 -175 -302)"/><text font-family="Helvetica" font-size="200" font-weight="bold" transform="matrix(.05 0 0 .05 13.593 64.185)">N</text><path d="m3748.37 7227.81-2.2 11.83-191.82-35.69 13.24-9.78z" transform="matrix(.05 0 0 .05 -175 -302)"/><path d="m3780.76 7528.91-13.48 4.28 42.83-170.76 11.67 2.93z" transform="matrix(.05 0 0 .05 -175 -302)"/><path d="m4093.42 7392.74-3.42 11.96-146.55-86.99 6.14-10.34z" transform="matrix(.05 0 0 .05 -175 -302)"/><path d="m4377.68 7398.55 3.88 12.11-78.3-1.6-.51-12.04z" transform="matrix(.05 0 0 .05 -175 -302)"/><path d="m4090 7404.7 3.42-11.96 133.1 2.72.51 12.04z" transform="matrix(.05 0 0 .05 -175 -302)"/><text font-family="Helvetica" font-size="200" font-weight="bold" transform="matrix(.05 0 0 .05 51.644 63.235)">O</text><text font-family="Helvetica" font-size="150" font-weight="bold" transform="matrix(.05 0 0 .05 59.423 59.636)">-</text><path d="m4520.54 7292.27 7.19 9.65-146.17 108.74-3.88-12.11z" transform="matrix(.05 0 0 .05 -175 -302)"/><path d="m4121.28 6744.49 3.51 12.08-138.85 90.55-6.57-10.08z" transform="matrix(.05 0 0 .05 -175 -302)"/><path d="m4413.07 6748.05-4.17 11.98-113.65-1.39.31-12.02z" transform="matrix(.05 0 0 .05 -175 -302)"/><path d="m4124.79 6756.57-3.51-12.08 98.18 1.2-.31 12.03z" transform="matrix(.05 0 0 .05 -175 -302)"/><text font-family="Helvetica" font-size="200" font-weight="bold" transform="matrix(.05 0 0 .05 53.059 48.098)">O</text><text font-family="Helvetica" font-size="150" font-weight="bold" transform="matrix(.05 0 0 .05 60.837 44.499)">-</text><path d="m4558.74 6860.47-7.35 9.53-142.49-109.97 4.17-11.98z" transform="matrix(.05 0 0 .05 -175 -302)"/><path d="m3765.69 6639.82 14.22 2.98 61.76 150.97-11.14 4.56z" transform="matrix(.05 0 0 .05 -175 -302)"/><path d="m3977.56 6434.51 4.08 12.8-201.73 195.49-14.22-2.98z" transform="matrix(.05 0 0 .05 -175 -302)"/><text font-family="Helvetica" font-size="200" font-weight="bold" transform="matrix(.05 0 0 .05 16.583 9.68)">O</text><path d="m3905.62 6277.48 11.67-2.93 46.65 185.72-11.67 2.93z" transform="matrix(.05 0 0 .05 -175 -302)"/><path d="m3955.9 6264.86 11.67-2.94 45.65 181.78-11.67 2.93z" transform="matrix(.05 0 0 .05 -175 -302)"/><text font-family="Helvetica" font-size="200" font-weight="bold" transform="matrix(.05 0 0 .05 34.324 25.822)">O</text><text font-family="Helvetica" font-size="150" font-weight="bold" transform="matrix(.05 0 0 .05 42.102 22.223)">-</text><path d="m4166.16 6463.37-1.82 11.89-182.7-27.95-4.08-12.8z" transform="matrix(.05 0 0 .05 -175 -302)"/><text font-family="Helvetica" font-size="200" font-weight="bold" transform="matrix(.05 0 0 .05 53.618 31.28)">O</text><path d="m4543.2 6626.9 6.7 9.99-181.26 121.59-6.7-10z" transform="matrix(.05 0 0 .05 -175 -302)"/><path d="m4572.08 6669.94 6.7 10-142.81 95.79-6.7-9.99z" transform="matrix(.05 0 0 .05 -175 -302)"/><text font-family="Helvetica" font-size="200" font-weight="bold" transform="matrix(.05 0 0 .05 50.928 81.31)">O</text><path d="m4537.36 7500.19-7.92 9.06-132.51-115.94 7.92-9.06z" transform="matrix(.05 0 0 .05 -175 -302)"/><path d="m4503.23 7539.2-7.92 9.06-159.95-139.95 7.92-9.06z" transform="matrix(.05 0 0 .05 -175 -302)"/><path d="m3994.28 7712.2-3.52 12.83-223.48-191.84 13.48-4.28z" transform="matrix(.05 0 0 .05 -175 -302)"/><text font-family="Helvetica" font-size="200" font-weight="bold" transform="matrix(.05 0 0 .05 34.919 85.043)">O</text><text font-family="Helvetica" font-size="150" font-weight="bold" transform="matrix(.05 0 0 .05 42.698 81.444)">-</text><path d="m4174.14 7680.67 2.07 11.85-185.45 32.51 3.52-12.83z" transform="matrix(.05 0 0 .05 -175 -302)"/><text font-family="Helvetica" font-size="200" font-weight="bold" transform="matrix(.05 0 0 .05 17.296 101.511)">O</text><g transform="matrix(.05 0 0 .05 -175 -302)"><path d="m3980.48 7901.13-11.68-2.87 45.78-185.97 11.68 2.87z"/><path d="m3930.15 7888.74-11.68-2.87 46.18-187.61 11.68 2.88z"/><path d="m4265.79 7046.95-9.77-9.65 61.44-18.22 3.42 11.53z"/><path d="m4375.97 7014.27-3.42-11.54 55.08-16.34 3.43 11.54z"/><path d="m4486.14 6981.59-3.42-11.54 55.09-16.34 3.42 11.53z"/><path d="m4255.41 6594.13 12.03.31-1.27 49.19-12.03-.31z"/><path d="m4252.87 6692.51 12.03.31-1.27 49.19-12.03-.31z"/><path d="m4250.34 6790.89 12.02.31-1.26 49.19-12.03-.31z"/><path d="m4247.8 6889.27 12.03.31-1.27 49.19-12.03-.31z"/><path d="m4245.26 6987.65 12.03.31-1.27 49.34-12.02-.47z"/><path d="m3981.43 6951.5 4.21-11.27 50.69 18.95-4.22 11.27z"/><path d="m4082.8 6989.41 4.22-11.27 50.68 18.95-4.21 11.27z"/><path d="m4184.18 7027.31 4.21-11.27 55.61 20.79-9.13 9.44z"/><path d="m3950.94 7204.14-5.45-10.72 41.34-21.02 5.45 10.72z"/><path d="m4033.62 7162.1-5.45-10.73 41.34-21.02 5.45 10.73z"/><path d="m4116.3 7120.06-5.45-10.73 41.34-21.02 5.45 10.72z"/><path d="m4198.98 7078.01-5.45-10.72 41.34-21.02 9.31 8.76z"/><path d="m4277.69 7562.62-12.02.51-1.95-46.1 12.02-.51z"/><path d="m4273.79 7470.43-12.02.5-1.95-46.09 12.02-.51z"/><path d="m4269.89 7378.23-12.02.51-1.95-46.1 12.02-.51z"/><path d="m4265.99 7286.04-12.02.5-1.95-46.09 12.02-.51z"/><path d="m4262.09 7193.84-12.02.51-1.95-46.1 12.02-.51z"/><path d="m4258.19 7101.65-12.02.5-1.99-47.12 12.06.52z"/><path d="m4520.57 7179.19-5.54 10.67-50.96-26.44 5.55-10.68z"/><path d="m4418.66 7126.29-5.54 10.68-50.96-26.45 5.55-10.67z"/><path d="m4316.75 7073.4-5.54 10.68-54.97-28.53 9.55-8.6z"/></g></svg>

<?xml version="1.0" standalone="no" ?>
<!DOCTYPE svg PUBLIC "-//W3C//DTD SVG 1.1//EN" "http://www.w3.org/Graphics/SVG/1.1/DTD/svg11.dtd">
<svg width="66px" height="104px" viewBox="0 0 66 104" style="background-color: #ffffff00" xmlns="http://www.w3.org/2000/svg" xmlns:xlink="http://www.w3.org/1999/xlink" version="1.1" >
<path stroke="none" fill="#fd6666" transform="matrix(0.05 0 0 0.05 -175 -302)" d="M 4106.31,7045.92 A 143.984,143.984 0 1 0 4394.28,7045.92A 143.984,143.984 0 1 0 4106.31,7045.92Z " />
<text x="0" y="0" stroke="none" fill="#000000" transform="matrix(0.05 0 0 0.05 15.4808 46.9906)" font-style="normal" font-weight="bold" font-size="200px" font-family="Helvetica" >
N</text>
<path stroke="none" fill="#000000" transform="matrix(0.05 0 0 0.05 -175 -302)" d="M 3599.28,6918.9 L 3588.54,6907.06 L 3791.25,6903.44 L 3791.46,6915.47 L 3599.28,6918.9 Z " />
<path stroke="none" fill="#000000" transform="matrix(0.05 0 0 0.05 -175 -302)" d="M 3567.59,7194.17 L 3554.35,7203.95 L 3588.54,6907.06 L 3599.28,6918.9 L 3567.59,7194.17 Z " />
<text x="0" y="0" stroke="none" fill="#000000" transform="matrix(0.05 0 0 0.05 13.5931 64.1854)" font-style="normal" font-weight="bold" font-size="200px" font-family="Helvetica" >
N</text>
<path stroke="none" fill="#000000" transform="matrix(0.05 0 0 0.05 -175 -302)" d="M 3748.37,7227.81 L 3746.17,7239.64 L 3554.35,7203.95 L 3567.59,7194.17 L 3748.37,7227.81 Z " />
<path stroke="none" fill="#000000" transform="matrix(0.05 0 0 0.05 -175 -302)" d="M 3780.76,7528.91 L 3767.28,7533.19 L 3810.11,7362.43 L 3821.78,7365.36 L 3780.76,7528.91 Z " />
<path stroke="none" fill="#000000" transform="matrix(0.05 0 0 0.05 -175 -302)" d="M 4093.42,7392.74 L 4090,7404.7 L 3943.45,7317.71 L 3949.59,7307.37 L 4093.42,7392.74 Z " />
<path stroke="none" fill="#000000" transform="matrix(0.05 0 0 0.05 -175 -302)" d="M 4377.68,7398.55 L 4381.56,7410.66 L 4303.26,7409.06 L 4302.75,7397.02 L 4377.68,7398.55 L 4377.68,7398.55 Z " />
<path stroke="none" fill="#000000" transform="matrix(0.05 0 0 0.05 -175 -302)" d="M 4090,7404.7 L 4093.42,7392.74 L 4226.52,7395.46 L 4227.03,7407.5 L 4090,7404.7 L 4090,7404.7 Z " />
<text x="0" y="0" stroke="none" fill="#000000" transform="matrix(0.05 0 0 0.05 51.6442 63.2348)" font-style="normal" font-weight="bold" font-size="200px" font-family="Helvetica" >
O</text>
<text x="0" y="0" stroke="none" fill="#000000" transform="matrix(0.05 0 0 0.05 59.4225 59.6362)" font-style="normal" font-weight="bold" font-size="150px" font-family="Helvetica" >
-</text>
<path stroke="none" fill="#000000" transform="matrix(0.05 0 0 0.05 -175 -302)" d="M 4520.54,7292.27 L 4527.73,7301.92 L 4381.56,7410.66 L 4377.68,7398.55 L 4520.54,7292.27 Z " />
<path stroke="none" fill="#000000" transform="matrix(0.05 0 0 0.05 -175 -302)" d="M 4121.28,6744.49 L 4124.79,6756.57 L 3985.94,6847.12 L 3979.37,6837.04 L 4121.28,6744.49 Z " />
<path stroke="none" fill="#000000" transform="matrix(0.05 0 0 0.05 -175 -302)" d="M 4413.07,6748.05 L 4408.9,6760.03 L 4295.25,6758.64 L 4295.56,6746.62 L 4413.07,6748.05 L 4413.07,6748.05 Z " />
<path stroke="none" fill="#000000" transform="matrix(0.05 0 0 0.05 -175 -302)" d="M 4124.79,6756.57 L 4121.28,6744.49 L 4219.46,6745.69 L 4219.15,6757.72 L 4124.79,6756.57 L 4124.79,6756.57 Z " />
<text x="0" y="0" stroke="none" fill="#000000" transform="matrix(0.05 0 0 0.05 53.0586 48.0975)" font-style="normal" font-weight="bold" font-size="200px" font-family="Helvetica" >
O</text>
<text x="0" y="0" stroke="none" fill="#000000" transform="matrix(0.05 0 0 0.05 60.837 44.4989)" font-style="normal" font-weight="bold" font-size="150px" font-family="Helvetica" >
-</text>
<path stroke="none" fill="#000000" transform="matrix(0.05 0 0 0.05 -175 -302)" d="M 4558.74,6860.47 L 4551.39,6870 L 4408.9,6760.03 L 4413.07,6748.05 L 4558.74,6860.47 Z " />
<path stroke="none" fill="#000000" transform="matrix(0.05 0 0 0.05 -175 -302)" d="M 3765.69,6639.82 L 3779.91,6642.8 L 3841.67,6793.77 L 3830.53,6798.33 L 3765.69,6639.82 Z " />
<path stroke="none" fill="#000000" transform="matrix(0.05 0 0 0.05 -175 -302)" d="M 3977.56,6434.51 L 3981.64,6447.31 L 3779.91,6642.8 L 3765.69,6639.82 L 3977.56,6434.51 Z " />
<text x="0" y="0" stroke="none" fill="#000000" transform="matrix(0.05 0 0 0.05 16.5832 9.67952)" font-style="normal" font-weight="bold" font-size="200px" font-family="Helvetica" >
O</text>
<path stroke="none" fill="#000000" transform="matrix(0.05 0 0 0.05 -175 -302)" d="M 3905.62,6277.48 L 3917.29,6274.55 L 3963.94,6460.27 L 3952.27,6463.2 L 3905.62,6277.48 Z " />
<path stroke="none" fill="#000000" transform="matrix(0.05 0 0 0.05 -175 -302)" d="M 3955.9,6264.86 L 3967.57,6261.92 L 4013.22,6443.7 L 4001.55,6446.63 L 3955.9,6264.86 Z " />
<text x="0" y="0" stroke="none" fill="#000000" transform="matrix(0.05 0 0 0.05 34.3235 25.8218)" font-style="normal" font-weight="bold" font-size="200px" font-family="Helvetica" >
O</text>
<text x="0" y="0" stroke="none" fill="#000000" transform="matrix(0.05 0 0 0.05 42.1019 22.2231)" font-style="normal" font-weight="bold" font-size="150px" font-family="Helvetica" >
-</text>
<path stroke="none" fill="#000000" transform="matrix(0.05 0 0 0.05 -175 -302)" d="M 4166.16,6463.37 L 4164.34,6475.26 L 3981.64,6447.31 L 3977.56,6434.51 L 4166.16,6463.37 Z " />
<text x="0" y="0" stroke="none" fill="#000000" transform="matrix(0.05 0 0 0.05 53.6175 31.2796)" font-style="normal" font-weight="bold" font-size="200px" font-family="Helvetica" >
O</text>
<path stroke="none" fill="#000000" transform="matrix(0.05 0 0 0.05 -175 -302)" d="M 4543.2,6626.9 L 4549.9,6636.89 L 4368.64,6758.48 L 4361.94,6748.48 L 4543.2,6626.9 Z " />
<path stroke="none" fill="#000000" transform="matrix(0.05 0 0 0.05 -175 -302)" d="M 4572.08,6669.94 L 4578.78,6679.94 L 4435.97,6775.73 L 4429.27,6765.74 L 4572.08,6669.94 Z " />
<text x="0" y="0" stroke="none" fill="#000000" transform="matrix(0.05 0 0 0.05 50.928 81.3099)" font-style="normal" font-weight="bold" font-size="200px" font-family="Helvetica" >
O</text>
<path stroke="none" fill="#000000" transform="matrix(0.05 0 0 0.05 -175 -302)" d="M 4537.36,7500.19 L 4529.44,7509.25 L 4396.93,7393.31 L 4404.85,7384.25 L 4537.36,7500.19 Z " />
<path stroke="none" fill="#000000" transform="matrix(0.05 0 0 0.05 -175 -302)" d="M 4503.23,7539.2 L 4495.31,7548.26 L 4335.36,7408.31 L 4343.28,7399.25 L 4503.23,7539.2 Z " />
<path stroke="none" fill="#000000" transform="matrix(0.05 0 0 0.05 -175 -302)" d="M 3994.28,7712.2 L 3990.76,7725.03 L 3767.28,7533.19 L 3780.76,7528.91 L 3994.28,7712.2 Z " />
<text x="0" y="0" stroke="none" fill="#000000" transform="matrix(0.05 0 0 0.05 34.9192 85.043)" font-style="normal" font-weight="bold" font-size="200px" font-family="Helvetica" >
O</text>
<text x="0" y="0" stroke="none" fill="#000000" transform="matrix(0.05 0 0 0.05 42.6975 81.4444)" font-style="normal" font-weight="bold" font-size="150px" font-family="Helvetica" >
-</text>
<path stroke="none" fill="#000000" transform="matrix(0.05 0 0 0.05 -175 -302)" d="M 4174.14,7680.67 L 4176.21,7692.52 L 3990.76,7725.03 L 3994.28,7712.2 L 4174.14,7680.67 Z " />
<text x="0" y="0" stroke="none" fill="#000000" transform="matrix(0.05 0 0 0.05 17.2955 101.511)" font-style="normal" font-weight="bold" font-size="200px" font-family="Helvetica" >
O</text>
<path stroke="none" fill="#000000" transform="matrix(0.05 0 0 0.05 -175 -302)" d="M 3980.48,7901.13 L 3968.8,7898.26 L 4014.58,7712.29 L 4026.26,7715.16 L 3980.48,7901.13 Z " />
<path stroke="none" fill="#000000" transform="matrix(0.05 0 0 0.05 -175 -302)" d="M 3930.15,7888.74 L 3918.47,7885.87 L 3964.65,7698.26 L 3976.33,7701.14 L 3930.15,7888.74 Z " />
<path stroke="none" fill="#000000" transform="matrix(0.05 0 0 0.05 -175 -302)" d="M 4265.79,7046.95 L 4256.02,7037.3 L 4317.46,7019.08 L 4320.88,7030.61 L 4265.79,7046.95 Z " />
<path stroke="none" fill="#000000" transform="matrix(0.05 0 0 0.05 -175 -302)" d="M 4375.97,7014.27 L 4372.55,7002.73 L 4427.63,6986.39 L 4431.06,6997.93 L 4375.97,7014.27 Z " />
<path stroke="none" fill="#000000" transform="matrix(0.05 0 0 0.05 -175 -302)" d="M 4486.14,6981.59 L 4482.72,6970.05 L 4537.81,6953.71 L 4541.23,6965.24 L 4486.14,6981.59 Z " />
<path stroke="none" fill="#000000" transform="matrix(0.05 0 0 0.05 -175 -302)" d="M 4255.41,6594.13 L 4267.44,6594.44 L 4266.17,6643.63 L 4254.14,6643.32 L 4255.41,6594.13 Z " />
<path stroke="none" fill="#000000" transform="matrix(0.05 0 0 0.05 -175 -302)" d="M 4252.87,6692.51 L 4264.9,6692.82 L 4263.63,6742.01 L 4251.6,6741.7 L 4252.87,6692.51 Z " />
<path stroke="none" fill="#000000" transform="matrix(0.05 0 0 0.05 -175 -302)" d="M 4250.34,6790.89 L 4262.36,6791.2 L 4261.1,6840.39 L 4249.07,6840.08 L 4250.34,6790.89 Z " />
<path stroke="none" fill="#000000" transform="matrix(0.05 0 0 0.05 -175 -302)" d="M 4247.8,6889.27 L 4259.83,6889.58 L 4258.56,6938.77 L 4246.53,6938.46 L 4247.8,6889.27 Z " />
<path stroke="none" fill="#000000" transform="matrix(0.05 0 0 0.05 -175 -302)" d="M 4245.26,6987.65 L 4257.29,6987.96 L 4256.02,7037.3 L 4244,7036.83 L 4245.26,6987.65 Z " />
<path stroke="none" fill="#000000" transform="matrix(0.05 0 0 0.05 -175 -302)" d="M 3981.43,6951.5 L 3985.64,6940.23 L 4036.33,6959.18 L 4032.11,6970.45 L 3981.43,6951.5 Z " />
<path stroke="none" fill="#000000" transform="matrix(0.05 0 0 0.05 -175 -302)" d="M 4082.8,6989.41 L 4087.02,6978.14 L 4137.7,6997.09 L 4133.49,7008.36 L 4082.8,6989.41 Z " />
<path stroke="none" fill="#000000" transform="matrix(0.05 0 0 0.05 -175 -302)" d="M 4184.18,7027.31 L 4188.39,7016.04 L 4244,7036.83 L 4234.87,7046.27 L 4184.18,7027.31 Z " />
<path stroke="none" fill="#000000" transform="matrix(0.05 0 0 0.05 -175 -302)" d="M 3950.94,7204.14 L 3945.49,7193.42 L 3986.83,7172.4 L 3992.28,7183.12 L 3950.94,7204.14 Z " />
<path stroke="none" fill="#000000" transform="matrix(0.05 0 0 0.05 -175 -302)" d="M 4033.62,7162.1 L 4028.17,7151.37 L 4069.51,7130.35 L 4074.96,7141.08 L 4033.62,7162.1 Z " />
<path stroke="none" fill="#000000" transform="matrix(0.05 0 0 0.05 -175 -302)" d="M 4116.3,7120.06 L 4110.85,7109.33 L 4152.19,7088.31 L 4157.64,7099.03 L 4116.3,7120.06 Z " />
<path stroke="none" fill="#000000" transform="matrix(0.05 0 0 0.05 -175 -302)" d="M 4198.98,7078.01 L 4193.53,7067.29 L 4234.87,7046.27 L 4244.18,7055.03 L 4198.98,7078.01 Z " />
<path stroke="none" fill="#000000" transform="matrix(0.05 0 0 0.05 -175 -302)" d="M 4277.69,7562.62 L 4265.67,7563.13 L 4263.72,7517.03 L 4275.74,7516.52 L 4277.69,7562.62 Z " />
<path stroke="none" fill="#000000" transform="matrix(0.05 0 0 0.05 -175 -302)" d="M 4273.79,7470.43 L 4261.77,7470.93 L 4259.82,7424.84 L 4271.84,7424.33 L 4273.79,7470.43 Z " />
<path stroke="none" fill="#000000" transform="matrix(0.05 0 0 0.05 -175 -302)" d="M 4269.89,7378.23 L 4257.87,7378.74 L 4255.92,7332.64 L 4267.94,7332.13 L 4269.89,7378.23 Z " />
<path stroke="none" fill="#000000" transform="matrix(0.05 0 0 0.05 -175 -302)" d="M 4265.99,7286.04 L 4253.97,7286.54 L 4252.02,7240.45 L 4264.04,7239.94 L 4265.99,7286.04 Z " />
<path stroke="none" fill="#000000" transform="matrix(0.05 0 0 0.05 -175 -302)" d="M 4262.09,7193.84 L 4250.07,7194.35 L 4248.12,7148.25 L 4260.14,7147.74 L 4262.09,7193.84 Z " />
<path stroke="none" fill="#000000" transform="matrix(0.05 0 0 0.05 -175 -302)" d="M 4258.19,7101.65 L 4246.17,7102.15 L 4244.18,7055.03 L 4256.24,7055.55 L 4258.19,7101.65 Z " />
<path stroke="none" fill="#000000" transform="matrix(0.05 0 0 0.05 -175 -302)" d="M 4520.57,7179.19 L 4515.03,7189.86 L 4464.07,7163.42 L 4469.62,7152.74 L 4520.57,7179.19 Z " />
<path stroke="none" fill="#000000" transform="matrix(0.05 0 0 0.05 -175 -302)" d="M 4418.66,7126.29 L 4413.12,7136.97 L 4362.16,7110.52 L 4367.71,7099.85 L 4418.66,7126.29 Z " />
<path stroke="none" fill="#000000" transform="matrix(0.05 0 0 0.05 -175 -302)" d="M 4316.75,7073.4 L 4311.21,7084.08 L 4256.24,7055.55 L 4265.79,7046.95 L 4316.75,7073.4 Z " />
</svg>
